dist/img/icon-close-banner.svg

<svg width="14" height="14" viewBox="0 0 14 14" fill="none" xmlns="http://www.w3.org/2000/svg">
<path d="M6.33049 7.00215L0.133497 13.2424C-0.0386656 13.4158 -0.0386656 13.6967 0.133497 13.87C0.21947 13.9568 0.332349 14 0.44501 14C0.557889 14 0.67055 13.9568 0.756522 13.87L7.00011 7.58282L13.2437 13.87C13.3299 13.9568 13.4425 14 13.5552 14C13.6679 14 13.7807 13.9568 13.8667 13.87C14.0389 13.6967 14.0389 13.4158 13.8667 13.2424L7.66995 7.00215L13.8709 0.757456C14.043 0.584091 14.043 0.303225 13.8709 0.129859C13.6987 -0.0432864 13.4198 -0.0432864 13.2479 0.129859L7.00033 6.42147L0.752147 0.130079C0.579984 -0.0430661 0.301285 -0.0430661 0.129122 0.130079C-0.0430407 0.303445 -0.0430407 0.584311 0.129122 0.757677L6.33049 7.00215Z" fill="white"/>
</svg>

<svg xmlns="http://www.w3.org/2000/svg" width="14" height="14" fill="none" viewBox="0 0 14 14"><path fill="#fff" d="m6.33 7.002-6.197 6.24A.446.446 0 0 0 .445 14a.44.44 0 0 0 .312-.13L7 7.583l6.244 6.287a.437.437 0 0 0 .623 0 .446.446 0 0 0 0-.628L7.67 7.002l6.2-6.245a.446.446 0 0 0 0-.627.44.44 0 0 0-.622 0L7 6.42.752.131a.44.44 0 0 0-.623 0 .446.446 0 0 0 0 .627z"/></svg>
